svg/trophy.svg

<svg xmlns="http://www.w3.org/2000/svg" viewBox="0 0 32 32" enable-background="new 0 0 32 32"><path d="M 7 4 C 6.0573243 4 5.0840788 4.3553049 4.3125 5.03125 C 3.5409212 5.7071951 3 6.7475641 3 8 C 3 9.0621054 3.4462038 9.9705186 4 10.6875 C 4.5537962 11.404481 5.2262157 11.973493 5.84375 12.53125 C 7.0788187 13.646764 8 14.564498 8 16 C 8 16.151557 7.8505362 16.520682 7.65625 16.8125 C 7.4619638 17.104318 7.28125 17.28125 7.28125 17.28125 L 8.71875 18.6875 C 8.71875 18.6875 9.0380362 18.365432 9.34375 17.90625 C 9.6052819 17.513429 9.8891375 17.002314 9.96875 16.34375 C 10.082622 16.666054 10.19144 17.000866 10.3125 17.3125 C 11.001756 19.086792 11.793469 20.677434 12.6875 21.875 C 13.013062 22.311095 13.347427 22.698538 13.71875 23.03125 C 11.651627 23.177911 10 24.897697 10 27 L 10 28 L 11 28 L 21 28 L 22 28 L 22 27 C 22 24.876846 20.314606 23.147303 18.21875 23.03125 C 18.595511 22.698464 18.954397 22.309848 19.28125 21.875 C 20.178825 20.680858 20.96247 19.084547 21.65625 17.3125 C 21.786334 16.980241 21.909181 16.62542 22.03125 16.28125 C 22.099585 16.969321 22.386761 17.501478 22.65625 17.90625 C 22.961964 18.365432 23.28125 18.6875 23.28125 18.6875 L 24.71875 17.28125 C 24.71875 17.28125 24.538036 17.104318 24.34375 16.8125 C 24.149464 16.520682 24 16.151557 24 16 C 24 14.564498 24.921181 13.646764 26.15625 12.53125 C 26.773784 11.973493 27.446204 11.404481 28 10.6875 C 28.553796 9.9705186 29 9.0621054 29 8 C 29 6.7475641 28.459079 5.7071951 27.6875 5.03125 C 26.915921 4.3553049 25.942676 4 25 4 C 23.722549 4 22.847137 4.5835824 22.375 5 L 9.625 5 C 9.152709 4.5835824 8.2769884 4 7 4 z M 7 6 C 7.473833 6 7.7779707 6.1489922 8 6.28125 C 8.028288 8.3199929 8.3797793 10.633693 8.9375 12.90625 C 8.4058444 12.186577 7.7404575 11.590156 7.15625 11.0625 C 6.5237843 10.491257 5.9462038 9.9655186 5.5625 9.46875 C 5.1787962 8.9719814 5 8.5428946 5 8 C 5 7.3024359 5.2720788 6.8678049 5.65625 6.53125 C 6.0404212 6.1946951 6.5656757 6 7 6 z M 25 6 C 25.434324 6 25.959579 6.1946951 26.34375 6.53125 C 26.727921 6.8678049 27 7.3024359 27 8 C 27 8.5428946 26.821204 8.9719814 26.4375 9.46875 C 26.053796 9.9655186 25.476216 10.491257 24.84375 11.0625 C 24.244781 11.603489 23.570025 12.224558 23.03125 12.96875 C 23.605754 10.68101 23.970799 8.3486191 24 6.28125 C 24.221917 6.1489922 24.525583 6 25 6 z M 10.125 7 L 21.875 7 C 21.722062 9.9716902 20.954307 13.59754 19.78125 16.59375 C 19.13253 18.250703 18.383175 19.689142 17.65625 20.65625 C 16.929325 21.623358 16.264422 22 15.96875 22 C 15.675102 22 15.036594 21.626184 14.3125 20.65625 C 13.588406 19.686316 12.832244 18.253458 12.1875 16.59375 C 11.022367 13.594449 10.277383 9.9566851 10.125 7 z M 15 10 L 15 15 L 17 15 L 17 10 L 15 10 z M 14 25 L 18 25 C 18.717456 25 19.210082 25.44311 19.5625 26 L 12.4375 26 C 12.789918 25.44311 13.282544 25 14 25 z" color="#000" overflow="visible" enable-background="accumulate"/></svg>

<svg xmlns="http://www.w3.org/2000/svg" viewBox="0 0 32 32"><path d="M7 4c-.943 0-1.916.355-2.688 1.03C3.542 5.708 3 6.75 3 8c0 1.062.446 1.97 1 2.688.554.716 1.226 1.285 1.844 1.843C7.08 13.648 8 14.565 8 16c0 .152-.15.52-.344.813-.194.29-.375.468-.375.468l1.44 1.407s.318-.322.624-.78c.26-.394.545-.905.625-1.563.113.322.22.657.342.968.69 1.775 1.48 3.365 2.376 4.563.325.436.66.824 1.03 1.156C11.653 23.18 10 24.9 10 27v1h12v-1c0-2.123-1.685-3.853-3.78-3.97.376-.332.734-.72 1.06-1.155.9-1.194 1.682-2.79 2.376-4.563.13-.332.253-.687.375-1.03.07.687.357 1.22.626 1.624.306.46.625.782.625.782l1.44-1.407s-.182-.176-.376-.468c-.195-.29-.344-.66-.344-.812 0-1.436.92-2.353 2.156-3.47.618-.557 1.29-1.126 1.844-1.842.554-.717 1-1.626 1-2.688 0-1.252-.54-2.293-1.313-2.97C26.918 4.356 25.944 4 25 4c-1.277 0-2.153.584-2.625 1H9.625C9.153 4.584 8.277 4 7 4zm0 2c.474 0 .778.15 1 .28.028 2.04.38 4.354.938 6.626-.532-.72-1.198-1.316-1.782-1.844-.632-.57-1.21-1.096-1.593-1.593C5.178 8.97 5 8.542 5 8c0-.698.272-1.132.656-1.47C6.04 6.196 6.566 6 7 6zm18 0c.434 0 .96.195 1.344.53.384.338.656.772.656 1.47 0 .543-.18.972-.563 1.47-.383.496-.96 1.02-1.593 1.592-.6.54-1.274 1.163-1.813 1.907.576-2.29.94-4.62.97-6.69.222-.13.526-.28 1-.28zM10.125 7h11.75c-.153 2.972-.92 6.598-2.094 9.594-.647 1.657-1.397 3.095-2.124 4.062C16.93 21.623 16.264 22 15.97 22c-.295 0-.933-.374-1.658-1.344-.724-.97-1.48-2.403-2.124-4.062-1.166-3-1.91-6.637-2.063-9.594zM15 10v5h2v-5h-2zm-1 15h4c.717 0 1.21.443 1.563 1h-7.125c.352-.557.845-1 1.562-1z"/></svg>
